bernoullicharts/0_5_x_1_0_5_x__mean.svg

<?xml version="1.0" encoding="utf-8" standalone="no"?>
<!DOCTYPE svg PUBLIC "-//W3C//DTD SVG 1.1//EN"
  "http://www.w3.org/Graphics/SVG/1.1/DTD/svg11.dtd">
<!-- Created with matplotlib (https://matplotlib.org/) -->
<svg height="345.6pt" version="1.1" viewBox="0 0 460.8 345.6" width="460.8pt" xmlns="http://www.w3.org/2000/svg" xmlns:xlink="http://www.w3.org/1999/xlink">
 <defs>
  <style type="text/css">
*{stroke-linecap:butt;stroke-linejoin:round;}
  </style>
 </defs>
 <g id="figure_1">
  <g id="patch_1">
   <path d="M 0 345.6 
L 460.8 345.6 
L 460.8 0 
L 0 0 
z
" style="fill:#ffffff;"/>
  </g>
  <g id="axes_1">
   <g id="patch_2">
    <path d="M 57.6 307.584 
L 414.72 307.584 
L 414.72 41.472 
L 57.6 41.472 
z
" style="fill:#ffffff;"/>
   </g>
   <g id="matplotlib.axis_1">
    <g id="xtick_1">
     <g id="line2d_1">
      <defs>
       <path d="M 0 0 
L 0 3.5 
" id="m5466d33479" style="stroke:#000000;stroke-width:0.8;"/>
      </defs>
      <g>
       <use style="stroke:#000000;stroke-width:0.8;" x="73.800255" xlink:href="#m5466d33479" y="307.584"/>
      </g>
     </g>
     <g id="text_1">
      <text style="font-family:DejaVu Sans;font-size:10px;font-style:normal;font-weight:normal;text-anchor:middle;" transform="rotate(-0, 73.800255, 322.182437)" x="73.800255" y="322.182437">0.0</text>
     </g>
    </g>
    <g id="xtick_2">
     <g id="line2d_2">
      <g>
       <use style="stroke:#000000;stroke-width:0.8;" x="138.744153" xlink:href="#m5466d33479" y="307.584"/>
      </g>
     </g>
     <g id="text_2">
      <text style="font-family:DejaVu Sans;font-size:10px;font-style:normal;font-weight:normal;text-anchor:middle;" transform="rotate(-0, 138.744153, 322.182437)" x="138.744153" y="322.182437">0.2</text>
     </g>
    </g>
    <g id="xtick_3">
     <g id="line2d_3">
      <g>
       <use style="stroke:#000000;stroke-width:0.8;" x="203.688051" xlink:href="#m5466d33479" y="307.584"/>
      </g>
     </g>
     <g id="text_3">
      <text style="font-family:DejaVu Sans;font-size:10px;font-style:normal;font-weight:normal;text-anchor:middle;" transform="rotate(-0, 203.688051, 322.182437)" x="203.688051" y="322.182437">0.4</text>
     </g>
    </g>
    <g id="xtick_4">
     <g id="line2d_4">
      <g>
       <use style="stroke:#000000;stroke-width:0.8;" x="268.631949" xlink:href="#m5466d33479" y="307.584"/>
      </g>
     </g>
     <g id="text_4">
      <text style="font-family:DejaVu Sans;font-size:10px;font-style:normal;font-weight:normal;text-anchor:middle;" transform="rotate(-0, 268.631949, 322.182437)" x="268.631949" y="322.182437">0.6</text>
     </g>
    </g>
    <g id="xtick_5">
     <g id="line2d_5">
      <g>
       <use style="stroke:#000000;stroke-width:0.8;" x="333.575847" xlink:href="#m5466d33479" y="307.584"/>
      </g>
     </g>
     <g id="text_5">
      <text style="font-family:DejaVu Sans;font-size:10px;font-style:normal;font-weight:normal;text-anchor:middle;" transform="rotate(-0, 333.575847, 322.182437)" x="333.575847" y="322.182437">0.8</text>
     </g>
    </g>
    <g id="xtick_6">
     <g id="line2d_6">
      <g>
       <use style="stroke:#000000;stroke-width:0.8;" x="398.519745" xlink:href="#m5466d33479" y="307.584"/>
      </g>
     </g>
     <g id="text_6">
      <text style="font-family:DejaVu Sans;font-size:10px;font-style:normal;font-weight:normal;text-anchor:middle;" transform="rotate(-0, 398.519745, 322.182437)" x="398.519745" y="322.182437">1.0</text>
     </g>
    </g>
    <g id="text_7">
     <text style="font-family:DejaVu Sans;font-size:10px;font-style:normal;font-weight:normal;text-anchor:middle;" transform="rotate(-0, 236.16, 335.860562)" x="236.16" y="335.860562">Input Coin's Heads Probability (λ)</text>
    </g>
   </g>
   <g id="matplotlib.axis_2">
    <g id="ytick_1">
     <g id="line2d_7">
      <defs>
       <path d="M 0 0 
L -3.5 0 
" id="mb818c70be3" style="stroke:#000000;stroke-width:0.8;"/>
      </defs>
      <g>
       <use style="stroke:#000000;stroke-width:0.8;" x="57.6" xlink:href="#mb818c70be3" y="295.488"/>
      </g>
     </g>
     <g id="text_8">
      <text style="font-family:DejaVu Sans;font-size:10px;font-style:normal;font-weight:normal;text-anchor:end;" transform="rotate(-0, 50.6, 299.287219)" x="50.6" y="299.287219">0.00</text>
     </g>
    </g>
    <g id="ytick_2">
     <g id="line2d_8">
      <g>
       <use style="stroke:#000000;stroke-width:0.8;" x="57.6" xlink:href="#mb818c70be3" y="259.488"/>
      </g>
     </g>
     <g id="text_9">
      <text style="font-family:DejaVu Sans;font-size:10px;font-style:normal;font-weight:normal;text-anchor:end;" transform="rotate(-0, 50.6, 263.287219)" x="50.6" y="263.287219">0.05</text>
     </g>
    </g>
    <g id="ytick_3">
     <g id="line2d_9">
      <g>
       <use style="stroke:#000000;stroke-width:0.8;" x="57.6" xlink:href="#mb818c70be3" y="223.488"/>
      </g>
     </g>
     <g id="text_10">
      <text style="font-family:DejaVu Sans;font-size:10px;font-style:normal;font-weight:normal;text-anchor:end;" transform="rotate(-0, 50.6, 227.287219)" x="50.6" y="227.287219">0.10</text>
     </g>
    </g>
    <g id="ytick_4">
     <g id="line2d_10">
      <g>
       <use style="stroke:#000000;stroke-width:0.8;" x="57.6" xlink:href="#mb818c70be3" y="187.488"/>
      </g>
     </g>
     <g id="text_11">
      <text style="font-family:DejaVu Sans;font-size:10px;font-style:normal;font-weight:normal;text-anchor:end;" transform="rotate(-0, 50.6, 191.287219)" x="50.6" y="191.287219">0.15</text>
     </g>
    </g>
    <g id="ytick_5">
     <g id="line2d_11">
      <g>
       <use style="stroke:#000000;stroke-width:0.8;" x="57.6" xlink:href="#mb818c70be3" y="151.488"/>
      </g>
     </g>
     <g id="text_12">
      <text style="font-family:DejaVu Sans;font-size:10px;font-style:normal;font-weight:normal;text-anchor:end;" transform="rotate(-0, 50.6, 155.287219)" x="50.6" y="155.287219">0.20</text>
     </g>
    </g>
    <g id="ytick_6">
     <g id="line2d_12">
      <g>
       <use style="stroke:#000000;stroke-width:0.8;" x="57.6" xlink:href="#mb818c70be3" y="115.488"/>
      </g>
     </g>
     <g id="text_13">
      <text style="font-family:DejaVu Sans;font-size:10px;font-style:normal;font-weight:normal;text-anchor:end;" transform="rotate(-0, 50.6, 119.287219)" x="50.6" y="119.287219">0.25</text>
     </g>
    </g>
    <g id="ytick_7">
     <g id="line2d_13">
      <g>
       <use style="stroke:#000000;stroke-width:0.8;" x="57.6" xlink:href="#mb818c70be3" y="79.488"/>
      </g>
     </g>
     <g id="text_14">
      <text style="font-family:DejaVu Sans;font-size:10px;font-style:normal;font-weight:normal;text-anchor:end;" transform="rotate(-0, 50.6, 83.287219)" x="50.6" y="83.287219">0.30</text>
     </g>
    </g>
    <g id="ytick_8">
     <g id="line2d_14">
      <g>
       <use style="stroke:#000000;stroke-width:0.8;" x="57.6" xlink:href="#mb818c70be3" y="43.488"/>
      </g>
     </g>
     <g id="text_15">
      <text style="font-family:DejaVu Sans;font-size:10px;font-style:normal;font-weight:normal;text-anchor:end;" transform="rotate(-0, 50.6, 47.287219)" x="50.6" y="47.287219">0.35</text>
     </g>
    </g>
    <g id="text_16">
     <text style="font-family:DejaVu Sans;font-size:10px;font-style:normal;font-weight:normal;text-anchor:middle;" transform="rotate(-90, 22.254687, 174.528)" x="22.254687" y="174.528">Simulated Mean / Function Value</text>
    </g>
   </g>
   <g id="line2d_15">
    <path clip-path="url(#p30c14660d7)" d="M 73.832727 295.452002 
L 77.112066 291.834992 
L 80.391405 288.254144 
L 83.670744 284.708917 
L 86.950083 281.198782 
L 90.229421 277.723222 
L 93.50876 274.281728 
L 96.788099 270.873801 
L 100.067438 267.498953 
L 103.346777 264.156704 
L 106.626116 260.846585 
L 109.905455 257.568134 
L 113.184793 254.320899 
L 116.464132 251.104436 
L 119.743471 247.91831 
L 123.02281 244.762094 
L 126.302149 241.635368 
L 129.581488 238.537722 
L 132.860826 235.468751 
L 136.140165 232.428058 
L 139.419504 229.415256 
L 142.698843 226.429962 
L 145.978182 223.4718 
L 149.257521 220.540404 
L 152.53686 217.63541 
L 155.816198 214.756465 
L 159.095537 211.903218 
L 162.374876 209.075328 
L 165.654215 206.272459 
L 168.933554 203.494278 
L 172.212893 200.740463 
L 175.492231 198.010693 
L 178.77157 195.304655 
L 182.050909 192.622041 
L 185.330248 189.962548 
L 188.609587 187.325878 
L 191.888926 184.71174 
L 195.168264 182.119844 
L 198.447603 179.54991 
L 201.726942 177.001657 
L 205.006281 174.474815 
L 208.28562 171.969113 
L 211.564959 169.484288 
L 214.844298 167.020079 
L 218.123636 164.576231 
L 221.402975 162.152494 
L 224.682314 159.748619 
L 227.961653 157.364364 
L 231.240992 154.999488 
L 234.520331 152.653758 
L 237.799669 150.326941 
L 241.079008 148.01881 
L 244.358347 145.72914 
L 247.637686 143.457711 
L 250.917025 141.204306 
L 254.196364 138.968711 
L 257.475702 136.750715 
L 260.755041 134.550112 
L 264.03438 132.366698 
L 267.313719 130.200272 
L 270.593058 128.050637 
L 273.872397 125.917598 
L 277.151736 123.800965 
L 280.431074 121.700547 
L 283.710413 119.61616 
L 286.989752 117.547621 
L 290.269091 115.49475 
L 293.54843 113.457369 
L 296.827769 111.435305 
L 300.107107 109.428383 
L 303.386446 107.436437 
L 306.665785 105.459297 
L 309.945124 103.4968 
L 313.224463 101.548784 
L 316.503802 99.615089 
L 319.78314 97.695558 
L 323.062479 95.790035 
L 326.341818 93.898368 
L 329.621157 92.020407 
L 332.900496 90.156002 
L 336.179835 88.305008 
L 339.459174 86.46728 
L 342.738512 84.642677 
L 346.017851 82.831058 
L 349.29719 81.032285 
L 352.576529 79.246221 
L 355.855868 77.472734 
L 359.135207 75.71169 
L 362.414545 73.962959 
L 365.693884 72.226412 
L 368.973223 70.501922 
L 372.252562 68.789365 
L 375.531901 67.088616 
L 378.81124 65.399554 
L 382.090579 63.722059 
L 385.369917 62.056013 
L 388.649256 60.401298 
L 391.928595 58.7578 
L 395.207934 57.125405 
L 398.487273 55.504001 
" style="fill:none;stroke:#1f77b4;stroke-linecap:square;stroke-width:1.5;"/>
   </g>
   <g id="line2d_16">
    <path clip-path="url(#p30c14660d7)" d="M 73.832727 295.488 
L 77.112066 294.048 
L 80.391405 291.168 
L 83.670744 278.208 
L 86.950083 279.648 
L 90.229421 279.648 
L 93.50876 263.808 
L 96.788099 278.208 
L 100.067438 275.328 
L 103.346777 269.568 
L 106.626116 262.368 
L 109.905455 243.648 
L 113.184793 260.928 
L 116.464132 243.648 
L 119.743471 253.728 
L 123.02281 255.168 
L 126.302149 247.968 
L 129.581488 237.888 
L 132.860826 226.368 
L 136.140165 245.088 
L 139.419504 233.568 
L 142.698843 230.688 
L 145.978182 216.288 
L 149.257521 216.288 
L 152.53686 191.808 
L 155.816198 206.208 
L 159.095537 207.648 
L 162.374876 229.248 
L 165.654215 213.408 
L 168.933554 209.088 
L 172.212893 204.768 
L 175.492231 200.448 
L 178.77157 186.048 
L 182.050909 196.128 
L 185.330248 188.928 
L 188.609587 187.488 
L 191.888926 199.008 
L 195.168264 175.968 
L 198.447603 193.248 
L 201.726942 183.168 
L 205.006281 164.448 
L 208.28562 190.368 
L 211.564959 152.928 
L 214.844298 161.568 
L 218.123636 157.248 
L 221.402975 158.688 
L 224.682314 174.528 
L 227.961653 154.368 
L 231.240992 163.008 
L 234.520331 181.728 
L 237.799669 151.488 
L 241.079008 148.608 
L 244.358347 152.928 
L 247.637686 142.848 
L 250.917025 137.088 
L 254.196364 151.488 
L 257.475702 163.008 
L 260.755041 139.968 
L 264.03438 108.288 
L 267.313719 108.288 
L 270.593058 158.688 
L 273.872397 118.368 
L 277.151736 129.888 
L 280.431074 127.008 
L 283.710413 145.728 
L 286.989752 78.048 
L 290.269091 109.728 
L 293.54843 115.488 
L 296.827769 103.968 
L 300.107107 109.728 
L 303.386446 111.168 
L 306.665785 108.288 
L 309.945124 91.008 
L 313.224463 108.288 
L 316.503802 83.808 
L 319.78314 88.128 
L 323.062479 75.168 
L 326.341818 111.168 
L 329.621157 91.008 
L 332.900496 102.528 
L 336.179835 75.168 
L 339.459174 101.088 
L 342.738512 101.088 
L 346.017851 63.648 
L 349.29719 88.128 
L 352.576529 66.528 
L 355.855868 53.568 
L 359.135207 86.688 
L 362.414545 55.008 
L 365.693884 65.088 
L 368.973223 95.328 
L 372.252562 65.088 
L 375.531901 78.048 
L 378.81124 79.488 
L 382.090579 60.768 
L 385.369917 55.008 
L 388.649256 57.888 
L 391.928595 62.208 
L 395.207934 79.488 
L 398.487273 56.448 
" style="fill:none;stroke:#ff7f0e;stroke-linecap:square;stroke-width:1.5;"/>
   </g>
   <g id="patch_3">
    <path d="M 57.6 307.584 
L 57.6 41.472 
" style="fill:none;stroke:#000000;stroke-linecap:square;stroke-linejoin:miter;stroke-width:0.8;"/>
   </g>
   <g id="patch_4">
    <path d="M 414.72 307.584 
L 414.72 41.472 
" style="fill:none;stroke:#000000;stroke-linecap:square;stroke-linejoin:miter;stroke-width:0.8;"/>
   </g>
   <g id="patch_5">
    <path d="M 57.6 307.584 
L 414.72 307.584 
" style="fill:none;stroke:#000000;stroke-linecap:square;stroke-linejoin:miter;stroke-width:0.8;"/>
   </g>
   <g id="patch_6">
    <path d="M 57.6 41.472 
L 414.72 41.472 
" style="fill:none;stroke:#000000;stroke-linecap:square;stroke-linejoin:miter;stroke-width:0.8;"/>
   </g>
   <g id="text_17">
    <text style="font-family:DejaVu Sans;font-size:12px;font-style:normal;font-weight:normal;" transform="translate(96.495937 22.034625)">Simulated Mean for 0.5*x/(1+0.5*x) Algorithm</text>
    <text style="font-family:DejaVu Sans;font-size:12px;font-style:normal;font-weight:normal;" transform="translate(132.609375 35.472)">(Wasserstein Distances in Legend)</text>
   </g>
   <g id="legend_1">
    <g id="patch_7">
     <path d="M 64.6 78.82825 
L 242.85 78.82825 
Q 244.85 78.82825 244.85 76.82825 
L 244.85 48.472 
Q 244.85 46.472 242.85 46.472 
L 64.6 46.472 
Q 62.6 46.472 62.6 48.472 
L 62.6 76.82825 
Q 62.6 78.82825 64.6 78.82825 
z
" style="fill:#ffffff;opacity:0.8;stroke:#cccccc;stroke-linejoin:miter;"/>
    </g>
    <g id="line2d_17">
     <path d="M 66.6 54.570437 
L 86.6 54.570437 
" style="fill:none;stroke:#1f77b4;stroke-linecap:square;stroke-width:1.5;"/>
    </g>
    <g id="line2d_18"/>
    <g id="text_18">
     <text style="font-family:DejaVu Sans;font-size:10px;font-style:normal;font-weight:normal;text-anchor:start;" transform="rotate(-0, 94.6, 58.070437)" x="94.6" y="58.070437">0.5*x/(1+0.5*x)</text>
    </g>
    <g id="line2d_19">
     <path d="M 66.6 69.248562 
L 86.6 69.248562 
" style="fill:none;stroke:#ff7f0e;stroke-linecap:square;stroke-width:1.5;"/>
    </g>
    <g id="line2d_20"/>
    <g id="text_19">
     <text style="font-family:DejaVu Sans;font-size:10px;font-style:normal;font-weight:normal;text-anchor:start;" transform="rotate(-0, 94.6, 72.748562)" x="94.6" y="72.748562">Simul. Mean (WD=0.004305)</text>
    </g>
   </g>
  </g>
 </g>
 <defs>
  <clipPath id="p30c14660d7">
   <rect height="266.112" width="357.12" x="57.6" y="41.472"/>
  </clipPath>
 </defs>
</svg>

<svg height="460.8" viewBox="0 0 460.8 345.6" width="614.4" xmlns="http://www.w3.org/2000/svg" xmlns:xlink="http://www.w3.org/1999/xlink"><defs><style>*{stroke-linecap:butt;stroke-linejoin:round}</style></defs><g id="figure_1"><path d="M0 345.6h460.8V0H0z" fill="#fff" id="patch_1"/><g id="axes_1"><path d="M57.6 307.584h357.12V41.472H57.6z" fill="#fff" id="patch_2"/><g id="matplotlib.axis_1"><g id="xtick_1"><g id="line2d_1"><defs><path d="M0 0v3.5" id="m5466d33479" stroke="#000" stroke-width=".8"/></defs><use x="73.8" xlink:href="#m5466d33479" y="307.584" stroke="#000" stroke-width=".8"/></g><text x="73.8" y="322.182" font-family="DejaVu Sans" font-size="10" font-weight="400" text-anchor="middle" id="text_1">0.0</text></g><g id="xtick_2"><use x="138.744" xlink:href="#m5466d33479" y="307.584" stroke="#000" stroke-width=".8" id="line2d_2"/><text x="138.744" y="322.182" font-family="DejaVu Sans" font-size="10" font-weight="400" text-anchor="middle" id="text_2">0.2</text></g><g id="xtick_3"><use x="203.688" xlink:href="#m5466d33479" y="307.584" stroke="#000" stroke-width=".8" id="line2d_3"/><text x="203.688" y="322.182" font-family="DejaVu Sans" font-size="10" font-weight="400" text-anchor="middle" id="text_3">0.4</text></g><g id="xtick_4"><use x="268.632" xlink:href="#m5466d33479" y="307.584" stroke="#000" stroke-width=".8" id="line2d_4"/><text x="268.632" y="322.182" font-family="DejaVu Sans" font-size="10" font-weight="400" text-anchor="middle" id="text_4">0.6</text></g><g id="xtick_5"><use x="333.576" xlink:href="#m5466d33479" y="307.584" stroke="#000" stroke-width=".8" id="line2d_5"/><text x="333.576" y="322.182" font-family="DejaVu Sans" font-size="10" font-weight="400" text-anchor="middle" id="text_5">0.8</text></g><g id="xtick_6"><use x="398.52" xlink:href="#m5466d33479" y="307.584" stroke="#000" stroke-width=".8" id="line2d_6"/><text x="398.52" y="322.182" font-family="DejaVu Sans" font-size="10" font-weight="400" text-anchor="middle" id="text_6">1.0</text></g><text x="236.16" y="335.861" font-family="DejaVu Sans" font-size="10" font-weight="400" text-anchor="middle" id="text_7">Input Coin&apos;s Heads Probability (λ)</text></g><g id="matplotlib.axis_2"><g id="ytick_1"><g id="line2d_7"><defs><path d="M0 0h-3.5" id="mb818c70be3" stroke="#000" stroke-width=".8"/></defs><use x="57.6" xlink:href="#mb818c70be3" y="295.488" stroke="#000" stroke-width=".8"/></g><text x="50.6" y="299.287" font-family="DejaVu Sans" font-size="10" font-weight="400" text-anchor="end" id="text_8">0.00</text></g><g id="ytick_2"><use x="57.6" xlink:href="#mb818c70be3" y="259.488" stroke="#000" stroke-width=".8" id="line2d_8"/><text x="50.6" y="263.287" font-family="DejaVu Sans" font-size="10" font-weight="400" text-anchor="end" id="text_9">0.05</text></g><g id="ytick_3"><use x="57.6" xlink:href="#mb818c70be3" y="223.488" stroke="#000" stroke-width=".8" id="line2d_9"/><text x="50.6" y="227.287" font-family="DejaVu Sans" font-size="10" font-weight="400" text-anchor="end" id="text_10">0.10</text></g><g id="ytick_4"><use x="57.6" xlink:href="#mb818c70be3" y="187.488" stroke="#000" stroke-width=".8" id="line2d_10"/><text x="50.6" y="191.287" font-family="DejaVu Sans" font-size="10" font-weight="400" text-anchor="end" id="text_11">0.15</text></g><g id="ytick_5"><use x="57.6" xlink:href="#mb818c70be3" y="151.488" stroke="#000" stroke-width=".8" id="line2d_11"/><text x="50.6" y="155.287" font-family="DejaVu Sans" font-size="10" font-weight="400" text-anchor="end" id="text_12">0.20</text></g><g id="ytick_6"><use x="57.6" xlink:href="#mb818c70be3" y="115.488" stroke="#000" stroke-width=".8" id="line2d_12"/><text x="50.6" y="119.287" font-family="DejaVu Sans" font-size="10" font-weight="400" text-anchor="end" id="text_13">0.25</text></g><g id="ytick_7"><use x="57.6" xlink:href="#mb818c70be3" y="79.488" stroke="#000" stroke-width=".8" id="line2d_13"/><text x="50.6" y="83.287" font-family="DejaVu Sans" font-size="10" font-weight="400" text-anchor="end" id="text_14">0.30</text></g><g id="ytick_8"><use x="57.6" xlink:href="#mb818c70be3" y="43.488" stroke="#000" stroke-width=".8" id="line2d_14"/><text x="50.6" y="47.287" font-family="DejaVu Sans" font-size="10" font-weight="400" text-anchor="end" id="text_15">0.35</text></g><text transform="rotate(-90 22.255 174.528)" x="22.255" y="174.528" font-family="DejaVu Sans" font-size="10" font-weight="400" text-anchor="middle" id="text_16">Simulated Mean / Function Value</text></g><path clip-path="url(#p30c14660d7)" d="M73.833 295.452l3.28-3.617 3.278-3.58 3.28-3.546 3.28-3.51 3.278-3.476 3.28-3.441 3.28-3.408 3.278-3.375 3.28-3.342 3.28-3.31 3.278-3.279 3.28-3.247 3.28-3.217 3.278-3.186 3.28-3.156 3.28-3.127 3.278-3.097 3.28-3.07 3.28-3.04 3.279-3.013 3.279-2.985 3.28-2.958 3.279-2.932 3.279-2.905 3.28-2.879 3.279-2.853 3.279-2.828 3.28-2.803 3.279-2.778 3.279-2.754 3.28-2.73 3.279-2.705 3.279-2.683 3.28-2.66 3.279-2.636 3.279-2.614 3.28-2.592 3.279-2.57 3.279-2.548 3.28-2.527 3.279-2.506 3.279-2.485 3.28-2.464 3.279-2.444 3.279-2.424 3.28-2.403 3.279-2.385L231.24 155l3.28-2.345 3.279-2.327 3.279-2.308 3.28-2.29 3.279-2.271 3.279-2.254 3.28-2.235 3.279-2.218 3.279-2.2 3.28-2.184 3.279-2.167 3.28-2.15 3.278-2.132 3.28-2.117 3.28-2.1 3.278-2.085 3.28-2.068 3.28-2.053 3.278-2.038 3.28-2.022 3.28-2.007 3.278-1.992 3.28-1.977 3.28-1.962 3.278-1.948 3.28-1.934 3.28-1.92 3.278-1.905 3.28-1.892 3.28-1.878 3.278-1.864 3.28-1.851 3.28-1.838 3.279-1.824 3.279-1.812 3.28-1.799 3.279-1.786 3.279-1.773 3.28-1.761 3.279-1.749 3.279-1.737 3.28-1.724 3.279-1.713 3.279-1.7 3.28-1.69 3.279-1.677 3.279-1.666 3.28-1.655 3.279-1.643 3.279-1.633 3.28-1.621" fill="none" stroke="#1f77b4" stroke-linecap="square" stroke-width="1.5" id="line2d_15"/><path clip-path="url(#p30c14660d7)" d="M73.833 295.488l3.28-1.44 3.278-2.88 3.28-12.96 3.28 1.44h3.278l3.28-15.84 3.28 14.4 3.278-2.88 3.28-5.76 3.28-7.2 3.278-18.72 3.28 17.28 3.28-17.28 3.278 10.08 3.28 1.44 3.28-7.2 3.278-10.08 3.28-11.52 3.28 18.72 3.279-11.52 3.279-2.88 3.28-14.4h3.279l3.279-24.48 3.28 14.4 3.279 1.44 3.279 21.6 3.28-15.84 3.279-4.32 3.279-4.32 3.28-4.32 3.279-14.4 3.279 10.08 3.28-7.2 3.279-1.44 3.279 11.52 3.28-23.04 3.279 17.28 3.279-10.08 3.28-18.72 3.279 25.92 3.279-37.44 3.28 8.64 3.279-4.32 3.279 1.44 3.28 15.84 3.279-20.16 3.279 8.64 3.28 18.72 3.279-30.24 3.279-2.88 3.28 4.32 3.279-10.08 3.279-5.76 3.28 14.4 3.279 11.52 3.279-23.04 3.28-31.68h3.279l3.28 50.4 3.278-40.32 3.28 11.52 3.28-2.88 3.278 18.72 3.28-67.68 3.28 31.68 3.278 5.76 3.28-11.52 3.28 5.76 3.278 1.44 3.28-2.88 3.28-17.28 3.278 17.28 3.28-24.48 3.28 4.32 3.278-12.96 3.28 36 3.28-20.16 3.278 11.52 3.28-27.36 3.28 25.92h3.279l3.279-37.44 3.28 24.48 3.279-21.6 3.279-12.96 3.28 33.12 3.279-31.68 3.279 10.08 3.28 30.24 3.279-30.24 3.279 12.96 3.28 1.44 3.279-18.72 3.279-5.76 3.28 2.88 3.279 4.32 3.279 17.28 3.28-23.04" fill="none" stroke="#ff7f0e" stroke-linecap="square" stroke-width="1.5" id="line2d_16"/><path d="M57.6 307.584V41.472" fill="none" stroke="#000" stroke-linecap="square" stroke-width=".8" id="patch_3"/><path d="M414.72 307.584V41.472" fill="none" stroke="#000" stroke-linecap="square" stroke-width=".8" id="patch_4"/><path d="M57.6 307.584h357.12" fill="none" stroke="#000" stroke-linecap="square" stroke-width=".8" id="patch_5"/><path d="M57.6 41.472h357.12" fill="none" stroke="#000" stroke-linecap="square" stroke-width=".8" id="patch_6"/><g id="text_17" font-family="DejaVu Sans" font-size="12" font-weight="400"><text transform="translate(96.496 22.035)">Simulated Mean for 0.5*x/(1+0.5*x) Algorithm</text><text transform="translate(132.61 35.472)">(Wasserstein Distances in Legend)</text></g><g id="legend_1"><path d="M64.6 78.828h178.25q2 0 2-2V48.472q0-2-2-2H64.6q-2 0-2 2v28.356q0 2 2 2z" fill="#fff" opacity=".8" stroke="#ccc" id="patch_7"/><path d="M66.6 54.57h20" fill="none" stroke="#1f77b4" stroke-linecap="square" stroke-width="1.5" id="line2d_17"/><text x="94.6" y="58.07" font-family="DejaVu Sans" font-size="10" font-weight="400" id="text_18">0.5*x/(1+0.5*x)</text><path d="M66.6 69.249h20" fill="none" stroke="#ff7f0e" stroke-linecap="square" stroke-width="1.5" id="line2d_19"/><text x="94.6" y="72.749" font-family="DejaVu Sans" font-size="10" font-weight="400" id="text_19">Simul. Mean (WD=0.004305)</text></g></g></g><defs><clipPath id="p30c14660d7"><path d="M57.6 41.472h357.12v266.112H57.6z"/></clipPath></defs></svg>
